!!!!SEGMENT: pl-wtm--1127-3625--001-004_rozycki-ludomir--4-impromptus-op-6-4.krn
!!!cenid: 19xx:147
!!!COM: Różycki, Ludomir
!!!COM-rismID: pe50045573
!!!CDT: 1883-1953
!!!CNT: Polish
!!!GTL: 4 Impromptus op. 6
!!!OTL: 4.
!!!OMV: 004
!!!PDT: 1924
!!!AGN:
!!!YEC: Copyright 2022 Narodowy Instytut Fryderyka Chopina (https://polishscores.org)
!!!YEM: License CC-BY-4.0 (https://creativecommons.org/licenses/by/4.0)
!!!SMS-siglum: PL-Wtm
!!!SMS-shelfmark: 1127 3625
!!!SMS-variant:
!!!SMS-altvar:
!!!SMS-shelfwork: 001-004 G
!!!NIFC-rismSourceID: 1001192259
!!!NIFC-rismChildID: 1001192259
!!!NIFC-islandoraID: pl-wtm:82111
!!!URL-pdf-islandora: https://repozytorium.nifc.pl/islandora/object/pl-wtm%3A82111/datastream/PDF/view
!!!URL-scan: https://polish.musicsources.pl/pl/lokalizacje/galeria/druki-muzyczne/18461/7 @EN{Scan on Polish Music Sources Website} @PL{Skany w portalu Dziedzictwo Muzyki Polskiej w otwartym dostępie}
!!!IIIF:
!!!ONB-nifc:
!!!AIN: 1 piano
!!!key: c
**kern	**fing	**kern	**fing	**dynam
*part1	*part1	*part1	*part1	*part1
*staff2	*	*staff1	*	*
*I"Piano	*	*I"Piano	*	*
*I'[pf]	*	*I'[pf]	*	*
*ICklav	*	*ICklav	*	*
*Ipiano	*	*Ipiano	*	*
*clefF4	*	*clefF4	*	*
*k[b-e-a-]	*	*k[b-e-a-]	*	*
*c:	*	*c:	*	*
*M3/4	*	*M3/4	*	*
*8ba	*	*	*	*
=1	=1	=1	=1	=1
*ped	*	*	*	*
!	!	!LO:TX:a:B:t=Andante, doloroso. [quarter]=60.	!	!
8CCC::/ 8GGG:: 8CC::	.	8GG::/ 8C:: 8E-:: 8G::	.	pp
*	*	*clefG2	*	*
*X8ba	*above	*	*	*
8c>\L 8e->	1 2	4.ryy	.	.
8c>\ 8e->	.	.	.	.
8c>\ 8e->	.	.	.	.
8c>\ 8e->	.	8.g/L	4	<
*Xped	*	*	*	*
8c>\J 8e->	.	.	.	.
.	.	(16g/Jk	.	[[
=2	=2	=2	=2	=2
*	*	*^	*	*
*ped	*	*	*	*	*
2C\ 2G-X	.	2b-/)	8c\L 8e-	5	>
.	.	.	8c\ 8e-	.	.
.	.	.	8c\ 8e-	.	.
.	.	.	8c\ 8e-	.	.
*Xped	*	*	*	*	*
4CC/ 4GGn 4C	.	8.gn/L	8c\ 8e-	.	] <
.	.	.	8c\J 8e-	.	.
.	.	(16g/Jk	.	.	[[
=3	=3	=3	=3	=3	=3
*ped	*	*	*	*	*
2C\ 2G-X	.	2b-/)	8c\L 8e-	.	>
.	.	.	8c\ 8e-	.	.
.	.	.	8c\ 8e-	.	.
.	.	.	8c\J 8e-	.	.
4C\ 4G- 4B-X	.	8.e-/L 8.ee-	8g-X\L 8b-	.	]
.	.	.	8g-\J 8b-	.	.
.	.	16e-/Jk 16ee-	.	.	.
*Xped	*	*	*	*	*
!!LO:LB:g=original	!	!	!	!	!
=4	=4	=4	=4	=4	=4
*ped	*	*	*	*	*
!	!	!	!	!	!LO:DY:t=sub. f
2FFF/ 2FF	.	((4g-X/ 4gg-X	8an\L 8ee-	.	f
.	.	.	8a\ 8ee-	.	.
.	.	2f/)) 2ff	8a\ 8ee-	.	.
*	*	*	*	*	*^
*Xped	*	*	*	*	*	*
!	!	!	!	!	!	!LO:HP:a
.	.	.	8a\ 8ee-	.	.	>
!	!	!	!	!	!LO:HP:b=2	!
(8.BBBn/L 8.BBn	.	.	8a\ 8ee-	.	<	.
.	.	.	8a\J 8ee-	.	.	.
16CC/Jk 16C	.	.	.	.	[[	]]
=5	=5	=5	=5	=5	=5	=5
!	!	!	!	!	!	!LO:HP:b=2
2GG-X/ 2G-X	.	(4ee-/	8e-\L 8an	1 2 5	>	>
.	.	.	8e-\ 8a	.	.	.
.	.	2dd/)	8d\ 8b-	1 3 5	.	.
.	.	.	8d\ 8b-	.	.	.
4FF/) 4F	.	.	8d\ 8b-	.	.	.
.	.	.	8d\J 8b-	.	]]	]]
*	*	*	*clefF4	*	*	*
*	*	*	*	*	*v	*v
*	*	*v	*v	*	*
=6	=6	=6	=6	=6
*8ba	*	*	*	*
*ped	*	*	*	*
8BBBB-::/ 8FFF:: 8BBB-::	.	8FF::/ 8BB-:: 8D-X:: 8F::	.	pp
*	*	*clefG2	*	*
*X8ba	*	*	*	*
8B->\L 8d-X>	1 2	4.ryy	.	.
8B->\ 8d->	.	.	.	.
8B->\ 8d->	.	.	.	.
*Xped	*	*	*	*
8B->\ 8d->	.	8.f/L	4	<
8B->\J 8d->	.	.	.	.
.	.	(>16f/Jk	.	[[
=7	=7	=7	=7	=7
*	*	*^	*	*
*ped	*	*	*	*	*
2BB-/ 2F-X	.	2a-/)	8B-\L 8d-X	5	>
.	.	.	8B-\ 8d-	.	.
.	.	.	8B-\ 8d-	.	.
.	.	.	8B-\ 8d-	.	.
*Xped	*	*	*	*	*
4BBB-/ 4FFn 4BB-	.	8.fn/L	8B-\ 8d-	.	] <
.	.	.	8B-\J 8d-	.	.
.	.	(16f/Jk	.	.	[[
=8	=8	=8	=8	=8	=8
*ped	*below	*	*	*	*
2BB-/ 2F-X	1 3	2a-/)	8B-\L 8d-X	.	>
.	.	.	8B-\ 8d-	.	.
.	.	.	8B-\ 8d-	.	.
.	.	.	8B-\ 8d-	.	.
4BB-/ 4F-	.	8.a-/L	8B-\ 8d-	.	.
.	.	.	8B-\J 8d-	.	.
.	.	16a-/Jk	.	.	]]
*Xped	*	*	*	*	*
!!LO:LB:g=original	!	!	!	!	!
=9	=9	=9	=9	=9	=9
*ped	*	*	*	*	*
!	!	!	!	!	!LO:DY:t=sub. f
2GGG/ 2GG	.	((4a-/ 4aa-	8bn\L 8ff	.	f
.	.	.	8b\ 8ff	.	.
.	.	2g/)) 2gg	8b\ 8ff	.	.
.	.	.	8b\ 8ff	.	.
*Xped	*	*	*	*	*
8.CC#X/L 8.C#X	.	.	8b\ 8ff	.	.
.	.	.	8b\J 8ff	.	.
16DD/Jk 16D	.	.	.	.	.
=10	=10	=10	=10	=10	=10
*ped	*	*	*	*	*
2BB-/ 2F-X	1 3	2a-/	8B-\L 8d-X	.	sf >
.	.	.	8B-\ 8d-	.	.
.	.	.	8B-\ 8d-	.	] p
.	.	.	8B-\ 8d-	.	.
4BB-/ 4F-	.	8.a-/L	8B-\ 8d-	.	.
.	.	.	8B-\J 8d-	.	.
.	.	16a-/Jk	.	.	.
*Xped	*	*	*	*	*
=11	=11	=11	=11	=11	=11
*ped	*	*	*	*	*
2GGG/ 2GG	.	((4a-/ 4aa-	8bn\L 8ff	.	f
.	.	.	8b\ 8ff	.	.
.	.	2g/)) 2gg	8b\ 8ff	.	.
.	.	.	8b\ 8ff	.	.
*Xped	*	*	*	*	*
!	!	!	!	!	!LO:HP:b=2
(8.CC#X/L 8.C#X	.	.	8b\ 8ff	.	<
.	.	.	8b\J 8ff	.	.
16DD/Jk 16D	.	.	.	.	[[
!!LO:LB:g=original	!	!	!	!	!
=12	=12	=12	=12	=12	=12
*ped	*	*	*	*	*
!	!	!	!	!	!LO:HP:b=2
2AA-\ 2A-	.	(4ff/	8f\L 8bn	.	>
.	.	.	8f\ 8b	.	.
.	.	2een,/)	8en\ 8cc	.	.
.	.	.	8e\ 8cc	.	.
*Xped	*	*	*	*	*
4GG/) 4G	.	.	8e\ 8cc	.	.
.	.	.	8e\J 8cc	.	]]
=13	=13	=13	=13	=13	=13
*ped	*	*	*	*	*
8AA-\L 8D-X 8F 8c-X	.	2ee-X/	8e-\L 8a-	.	p
8AA-\ 8D- 8F 8c-	.	.	8e-\ 8a-	.	>
8AA-\ 8D- 8F 8c-	.	.	8e-\ 8a-	.	.
*Xped	*	*	*	*	*
8AA-\J 8D- 8F 8c-	.	.	8e-\J 8a-	.	.
8.AA-\L	.	8F</L 8c< 8e-<	4ryy	.	]
.	.	8F</J 8c< 8e-<	.	.	.
16AA-\Jk	.	.	.	.	.
=14	=14	=14	=14	=14	=14
*^	*	*	*	*	*
(4AA-\	2.CC\	2 5	8E-</L 8cn< 8e-<	2ryy	.	.
.	.	.	8E-</ 8c< 8e-<	.	.	.
2GG\)	.	.	8E-</ 8c< 8e-<	.	.	.
.	.	.	8E-</J 8c< 8e-<	.	.	.
.	.	.	8.ee-/L	8e-\L 8cc	.	<
.	.	.	.	8e-\J 8cc	.	.
.	.	.	16ee-,/Jk	.	.	[[
*v	*v	*	*	*	*	*
*	*	*v	*v	*	*
=15	=15	=15	=15	=15
*	*	*^	*	*
*ped	*	*	*	*	*
8AA-\L 8D-X 8F 8c-X	.	2ee-/	8e-\L 8a-	.	>
8AA-\ 8D- 8F 8c-	.	.	8e-\ 8a-	.	.
8AA-\ 8D- 8F 8c-	.	.	8e-\ 8a-	.	.
8AA-\J 8D- 8F 8c-	.	.	8e-\JJ 8a-	.	.
8.AA-\L	.	8F</L 8c< 8e-<	4ryy	.	]
.	.	8F</J 8c< 8e-<	.	.	.
16AA-\Jk	.	.	.	.	.
*Xped	*	*	*	*	*
*	*	*v	*v	*	*
!!LO:LB:g=original	!	!	!	!
=16	=16	=16	=16	=16
*^	*	*	*	*
*	*	*	*^	*	*
!	!	!	!	!LO:TX:b:Bi:t=diminuendo_:problem:dynamics with line extensions	!	!LO:HP:t=diminuendo_
(>4AA-\	[2.CC\	2 5	8E-</L 8cn< 8e-<	2ryy	.	>
.	.	.	8E-</ 8c< 8e-<	.	.	.
2GG\)	.	1	8E-</ 8c< 8e-<	.	.	.
.	.	.	8E-</J 8c< 8e-<	.	.	.
*	*	*	*clefF4	*	*	*
.	.	.	8.e-\L	8E-</L 8c<	.	.
.	.	.	.	8E-</J 8c<	.	.
.	.	.	16e-\Jk	.	.	.
*	*	*	*v	*v	*	*
=17	=17	=17	=17	=17	=17
*	*	*	*^	*	*
2.FF/	2.CCnX\_	.	((4E-/ 4e-	8A-\L 8c-X	.	.
.	.	.	.	8A-\J 8c-	.	.
.	.	.	4D/)) 4d	8A-\L 8c-	.	.
.	.	.	.	8A-\J 8c-	.	.
.	.	.	8.D/L 8.d	8A-\L 8c-	.	.
.	.	.	.	8A-\J 8c-	.	.
.	.	.	16E-/Jk 16e-	.	.	.
=18	=18	=18	=18	=18	=18	=18
2.EEn/	2.CC\]	.	((4D/ 4d	8G\L 8B-	.	.
.	.	.	.	8G\J 8B-	.	.
.	.	.	4D-X/)) 4d-X	8G\L 8B-	.	.
.	.	.	.	8G\J 8B-	.	.
.	.	.	8.D-/L 8.d-	8G\L 8B-	.	.
.	.	.	.	8G\J 8B-	.	.
.	.	.	16D-/Jk 16d-	.	.	.
*v	*v	*	*	*	*	*
!!LO:LB:g=original	!	!	!	!	!
=19	=19	=19	=19	=19	=19
*ped	*	*	*	*	*
2DDDn/ 2DDn	.	2D-X/ 2d-X	8G-X\L 8B--	.	.
.	.	.	8G-\ 8B--	.	.
.	.	.	8G-\ 8B--	.	.
.	.	.	8G-\J 8B--	.	.
*Xped	*	*	*	*	*
8.EEE-/L 8.EE-	.	8C/L 8Gn 8c	4ryy	.	.
.	.	8C/J 8G 8c	.	.	.
((16EEE-/Jk 16EE-	.	.	.	.	.
*	*	*v	*v	*	*
=20	=20	=20	=20	=20
*ped	*	*	*	*
2GGG-X/)) 2GG-X	.	8r	.	.
!	!	!LO:TX:b:Bi:t=dim._:problem:dynamics with line extensions	!	!LO:HP:t=dim._
.	.	8C\L 8E- 8B-	.	>
.	.	8C\ 8E- 8B-	.	.
.	.	8C\ 8E- 8B-	.	.
*Xped	*	*	*	*
8.EEE-/L 8.EE-	.	8C\ 8Gn 8c	.	.
.	.	8C\J 8G 8c	.	.
((16EEE-/Jk 16EE-	.	.	.	.
=21	=21	=21	=21	=21
*ped	*	*	*	*
((2GGG-X/)) 2GG-X	.	8r	.	.
.	.	8C\L 8E- 8B-	.	.
.	.	8C\ 8E- 8B-	.	.
.	.	8C\ 8E- 8B-	.	.
*Xped	*	*	*	*
[4FFF/)) [4FF	.	8C\ 8E- 8An	.	.
.	.	8C\J 8E- 8A	.	.
=22	=22	=22	=22	=22
!	!	!	!	!LO:DY:t=più f
8FFF/L] 8FF]	.	2C\ 2A-X 2c	.	f
8FFF#X/ 8FF#X	4	.	.	.
8GGG/ 8GG	5	.	.	.
8AAA-/J 8AA-	4	.	.	.
*ped	*	*	*	*
8.AAAn/L 8.AAn	.	8D-X\L 8F 8d-X	.	.
.	.	8D-\J 8F 8d-	.	.
*Xped	*	*	*	*
[16AAA/Jk [16AA	.	.	.	.
!!LO:LB:g=original	!	!	!	!
=23	=23	=23	=23	=23
8AAA/L] 8AA]	.	2C\ 2A-X 2c	.	.
8FFF#X/ 8FF#X	4	.	.	.
8GGG/ 8GG	5	.	.	.
8AAA-X/J 8AA-X	4	.	.	.
*ped	*	*	*	*
8.AAAn/L 8.AAn	.	8D-X\L 8F 8d-X	.	.
.	.	8D-\J 8F 8d-	.	.
*Xped	*	*	*	*
[16AAA/Jk [16AA	.	.	.	.
=24	=24	=24	=24	=24
!	!	!LO:TX:b:Bi:t=crescendo e accelerando poco a poco_:problem:dynamics with line extensions	!	!LO:HP:t=crescendo e accelerando poco a poco_
8AAA/L] 8AA]	.	2En\ 2c 2en	.	<
8BBB-/ 8BB-	.	.	.	.
8BBBn/ 8BBn	.	.	.	.
8CC/J 8C	.	.	.	.
*ped	*	*	*	*
8.DD-X/L 8.D-X	.	8F\L 8An 8f	.	.
.	.	8F\J 8A 8f	.	.
*Xped	*	*	*	*
[16DD-/Jk [16D-	.	.	.	.
=25	=25	=25	=25	=25
8DD-/L] 8D-]	.	2En\ 2c 2en	.	.
8BBB-/ 8BB-	.	.	.	.
8BBBn/ 8BBn	.	.	.	.
8CC/J 8C	.	.	.	.
*ped	*	*	*	*
8.DD-X/L 8.D-X	.	8F\L 8An 8f	.	.
.	.	8F\J 8A 8f	.	.
*Xped	*	*	*	*
[16DD-/Jk [16D-	.	.	.	.
*	*	*clefG2	*	*
=26	=26	=26	=26	=26
8DD-/L] 8D-]	.	2A-X/ 2f-X 2a-X	.	.
8DDn/ 8Dn	.	.	.	.
8EE-/ 8E-	.	.	.	.
8EEn/J 8En	.	.	.	.
*ped	*	*	*	*
8.FFn/L 8.Fn	.	8B--/L 8d-X 8b--	.	.
.	.	8B--/J 8d- 8b--	.	.
*Xped	*	*	*	*
[16FF/Jk [16F	.	.	.	.
!!LO:LB:g=original	!	!	!	!
=27	=27	=27	=27	=27
8FF/L] 8F]	.	2A-/ 2f-X 2a-	.	.
8DDn/ 8Dn	.	.	.	.
8EE-/ 8E-	.	.	.	.
8EEn/J 8En	.	.	.	.
*ped	*	*	*	*
8.FFn/L 8.Fn	.	8B--/L 8d-X 8b--	.	.
.	.	8B--/J 8d- 8b--	.	.
*Xped	*	*	*	*
[16FF/Jk [16F	.	.	.	.
=28	=28	=28	=28	=28
!	!	!LO:TX:b:Bi:t=crescendo_:problem:dynamics with line extensions	!	!LO:HP:t=crescendo_
8FF/L] 8F]	.	2c/ 2a- 2cc	.	<
8FF#X/ 8F#X	.	.	.	.
8GG/ 8G	.	.	.	.
8AA-/J 8A-	.	.	.	.
*ped	*	*	*	*
8.AAn\L 8.An	.	8d-X/L 8fn 8dd-X	.	.
.	.	8d-/J 8f 8dd-	.	.
*Xped	*	*	*	*
[16AA\Jk [16A	.	.	.	.
=29	=29	=29	=29	=29
8AA/L] 8A]	.	2c/ 2a-X 2cc	.	.
8FF#X/ 8F#X	.	.	.	.
8GG/ 8G	.	.	.	.
8AA-X/J 8A-X	.	.	.	.
*ped	*	*	*	*
8.AAn\L 8.An	.	8d-X/L 8fn 8dd-X	.	.
.	.	8d-/J 8f 8dd-	.	.
*Xped	*	*	*	*
[16AA\Jk [16A	.	.	.	.
=30	=30	=30	=30	=30
8AA\L] 8A]	.	2en/ 2cc 2een	.	.
8BB-\ 8B-	.	.	.	.
8BBn\ 8Bn	.	.	.	.
8C\J 8c	.	.	.	.
*ped	*	*	*	*
8.D-X\L 8.d-X	.	8f\L 8an 8ff	.	.
.	.	8f\J 8a 8ff	.	.
*Xped	*	*	*	*
[16D-\Jk [16d-	.	.	.	.
!!LO:LB:g=original	!	!	!	!
=31	=31	=31	=31	=31
8D-X\L] 8d-X]	.	2en/ 2cc 2een	.	.
8BB-\ 8B-	.	.	.	.
8BBn\ 8Bn	.	.	.	.
8C\J 8c	.	.	.	.
*ped	*	*	*	*
8.D-X\L 8.d-X	.	8f\L 8an 8ff	.	.
.	.	8f\J 8a 8ff	.	.
*Xped	*	*	*	*
16D-\Jk 16d-	.	.	.	.
=32	=32	=32	=32	=32
*	*	*^	*	*
*ped	*	*	*	*	*
!	!	!LO:TX:a:B:t=Tempo I.	!	!	!
4Dn\ 4dn	.	((4a-/ 4aa-	8bn\L 8ff	.	ff
.	.	.	8b\J 8ff	.	.
4GGG/ 4GG	.	2g/)) 2gg	8b\L 8ff	.	.
.	.	.	8b\ 8ff	.	.
*Xped	*	*	*	*	*
(8.CC#X/L 8.C#X	.	.	8b\ 8ff	.	.
.	.	.	8b\J 8ff	.	.
16DD/Jk) 16D	.	.	.	.	.
=33	=33	=33	=33	=33	=33
*ped	*	*	*	*	*
8AA-\L 8D-X 8F 8c-X	.	2ff/	8f\L 8cc-X	.	.
8AA-\ 8D- 8F 8c-	.	.	8f\ 8cc-	.	.
8AA-\ 8D- 8F 8c-	.	.	8f\ 8cc-	.	.
8AA-\ 8D- 8F 8c-	.	.	8f\ 8cc-	.	.
8AA-\ 8D- 8F 8c-	.	8.ff/L	8f\ 8cc-	.	.
8AA-\J 8D- 8F 8c-	.	.	8f\J 8cc-	.	.
.	.	16f/Jk 16ff	.	.	.
*Xped	*	*	*	*	*
=34	=34	=34	=34	=34	=34
*ped	*	*	*	*	*
2GGG/ 2GG	.	((4a-/ 4aa-	8bn\L 8ff	.	.
.	.	.	8b\J 8ff	.	.
.	.	2g/)) 2gg	8b\L 8ff	.	.
.	.	.	8b\ 8ff	.	.
*Xped	*	*	*	*	*
(8.CC#X/L 8.C#X	.	.	8b\ 8ff	.	.
.	.	.	8b\J 8ff	.	.
16DD/Jk) 16D	.	.	.	.	.
!!LO:LB:g=original	!	!	!	!	!
=35	=35	=35	=35	=35	=35
*ped	*	*	*	*	*
8AA-\L 8F 8c-X	.	2ff/	8f\L 8cc-X	.	>
8AA-\ 8F 8c-	.	.	8f\ 8cc-	.	.
8AA-\ 8F 8c-	.	.	8f\ 8cc-	.	.
8AA-\ 8F 8c-	.	.	8f\ 8cc-	.	.
8AA-\ 8F 8c-	.	8.ff/L	8f\ 8cc-	.	.
8AA-\J 8F 8c-	.	.	8f\J 8cc-	.	.
.	.	16ff/Jk	.	.	]]
*Xped	*	*	*	*	*
=36	=36	=36	=36	=36	=36
*ped	*	*	*	*	*
!	!	!	!LO:TX:b:Bi:t=dim._:problem:dynamics with line extensions	!	!LO:HP:t=dim._
8AA-\L 8En 8c-X	.	2ffn/	8en\L 8cc-X 8een	.	>
8AA-\ 8E 8c-	.	.	8e\ 8cc- 8ee	.	.
8AA-\ 8E 8c-	.	.	8e\ 8cc- 8ee	.	.
*Xped	*	*	*	*	*
8AA-\ 8E 8c-	.	.	8e\ 8cc- 8ee	.	.
*ped	*	*	*	*	*
8AA-\ 8E 8c-	.	8.ff/L	8e-X\ 8a- 8ee-X	.	.
*Xped	*	*	*	*	*
8AA-\J 8E 8c-	.	.	8e-\J 8a- 8ee-	.	.
.	.	16ff/Jk	.	.	.
=37	=37	=37	=37	=37	=37
*^	*	*	*	*	*
*ped	*	*	*	*	*above	*
8BBB-/ 8BB-	8ryy	.	8g:/ 8ee-: 8bb-:	8r	.	.
!	!	!	!LO:TX:a:i:t=molto espressivo	!	!	!
8G/L	8r	.	8B-\L 8e-	8r	1 4	<
8A-/	4r	.	8c\ 8f	4r	2 5	.
8B-/	.	.	8d\ 8g	.	1 3	[
*Xped	*	*	*	*	*	*
8c/	[4BB-\	.	8e-\ 8a-	[>4b-/	1 4 5	>
8B-/J	.	.	8d\J 8g	.	1 3	]]
=38	=38	=38	=38	=38	=38	=38
4A-/	2BB-\]	.	8b-/]	4c\ 4f	1 2	.
.	.	.	8e-/L 8ee-	.	.	.
4G/ 4B- 4e-	.	4	8f/ 8ff	4ryy	.	.
.	.	.	8g/ 8gg	.	.	.
8F/L 8A- 8d-X	[4BB-\	.	8a-/ 8ff 8aa-	[>4bb-\	.	.
8G/J 8B- 8e-	.	.	8g/J 8ee- 8gg	.	.	.
=39	=39	=39	=39	=39	=39	=39
2A-~/ 2c	8BB-\]	.	2f~/ 2cc 2ff	8bb-\]	.	.
.	2ryy	.	.	2ryy	.	.
4c~>/ 4e-	.	.	4g~>/ 4cc 4ee-	.	.	.
.	8ryy	.	.	8ryy	.	.
*v	*v	*	*	*	*	*
*	*	*v	*v	*	*
!!LO:PB:g=original	!	!	!	!
=40	=40	=40	=40	=40
!	!	!LO:TX:b:i:t=poco rit.	!	!
4A-~\ 4c	.	4f~\ 4cc 4ff	.	.
2G~\ 2c 2e-	.	2g~\ 2cc 2gg	.	.
=41	=41	=41	=41	=41
*^	*	*^	*	*
*ped	*	*	*	*	*	*
!	!	!	!LO:TX:a:i:t=a tempo	!	!	!
8BBBn/ 8BBn	8ryy	.	8r	2ryy	.	.
8G#X/L	8r	3	8Bn\L 8en	.	1 4	<
8An/	4r	.	8c#X\ 8f#X	.	2 5	.
8Bn/	.	.	8d#X\ 8g#X	.	1 3	[
*Xped	*	*	*	*	*	*
8c#X/	[4BBn\	.	8en\ 8an	[>4bn/	1 4 5	>
8B/J	.	.	8d#\J 8g#	.	.	.
=42	=42	=42	=42	=42	=42	=42
4An/	2BB\]	.	8b/]	4c#X\ 4f#X	.	]
.	.	.	8en/L 8een	.	.	.
4G#X/ 4Bn 4en	.	.	8f#/ 8ff#X	4ryy	.	.
.	.	.	8g#X/ 8gg#X	.	.	.
8F#X/L 8A 8dn	[4BBn\	.	8an/ 8ff# 8aan	[>4bbn\	.	.
8G#/J 8B 8e	.	.	8g#/J 8ee 8gg#	.	.	.
=43	=43	=43	=43	=43	=43	=43
2An/ 2c#X	8BB\]	.	2f#X~/ 2cc#X 2ff#X	8bb\]	.	.
.	2ryy	.	.	2ryy	.	.
!	!	!	!LO:TX:b:i:t=poco rit._	!	!	!
!	!	!	!LO:TX:b:Bi:t=poco rit._:problem: with line extensions	!	!	!
4c#X/ 4en	.	.	4g#X~>/ 4cc#X 4een	.	.	.
.	8ryy	.	.	8ryy	.	.
*v	*v	*	*	*	*	*
*	*	*v	*v	*	*
=44	=44	=44	=44	=44
4An\ 4c#X	.	4f#X~\ 4cc#X 4ff#X	.	.
2G#X\ 2c# 2en	.	2g#X~\ 2cc# 2gg#X	.	.
!!LO:LB:g=original	!	!	!	!
=45	=45	=45	=45	=45
*ped	*	*	*	*
!	!	!LO:TX:b:i:t=a tempo	!	!
2A-\ 2cn 2f	.	8a-\L 8ccn 8aa-	.	pp
.	.	8a-\ 8cc 8aa-	.	.
.	.	8a-\ 8cc 8aa-	.	.
.	.	8a-\ 8cc 8aa-	.	.
*Xped	*	*	*	*
8.FFF-X/L 8.FF-X	.	8a-\ 8cc-X 8aa-	.	.
.	.	8a-\J 8cc- 8aa-	.	.
(16FFF-/Jk (16FF-	.	.	.	.
=46	=46	=46	=46	=46
*^	*	*	*	*
*ped	*	*	*	*	*
!	!	!	!	!	!LO:HP:t=dim.
2GGG/) 2GG)	4r	.	8g/L 8b- 8gg	.	>
.	.	.	8g/ 8b- 8gg	.	.
!LO:TX:a:i:t=m.g.	!	!	!LO:TX:b:i:t=misterioso	!	!
.	2d>\ 2dd>	.	8g/ 8b- 8gg	.	sfz
.	.	.	8g/ 8b- 8gg	.	.
*Xped	*	*	*	*	*
8.DDD/L 8.DD	.	.	8g-X/ 8b-- 8gg-X	.	.
.	.	.	8g-/J 8b-- 8gg-	.	]]
((16DDD/Jk 16DD	.	.	.	.	.
=47	=47	=47	=47	=47	=47
*ped	*	*	*	*	*
2FFF/)) 2FF	4r	.	8f/L 8a- 8ff	.	.
.	.	.	8f/ 8a- 8ff	.	.
!LO:TX:a:i:t=m.g.	!	!	!	!	!
.	2c>\ 2cc>	.	8f/ 8a- 8ff	.	sfz
.	.	.	8f/ 8a- 8ff	.	.
*Xped	*	*	*	*	*
8.CCC/L 8.CC	.	.	8en/ 8g 8een	.	.
.	.	.	8e/J 8g 8ee	.	.
16CCC/Jk 16CC	.	.	.	.	.
=48	=48	=48	=48	=48	=48
*ped	*	*	*	*	*
4r	2EEE-/ 2EE-	.	8e-X/L 8g-X 8ee-X	.	.
.	.	.	8e-/ 8g- 8ee-	.	.
2BB-\ 2B-	.	.	8e-/ 8g- 8ee-	.	sfz
.	.	.	8e-/ 8g- 8ee-	.	.
*Xped	*	*	*	*	*
.	8.CCC/L 8.CC	.	8en/ 8gn 8een	.	.
.	.	.	8e/J 8g 8ee	.	.
.	(16CCC/Jk 16CC	.	.	.	.
!!LO:LB:g=original	!	!	!	!	!
=49	=49	=49	=49	=49	=49
*ped	*	*	*	*	*
4r	2.EEE-/) 2.EE-	.	8e-X/L 8g-X 8ee-X	.	.
.	.	.	8e-/ 8g- 8ee-	.	.
2BB-\ 2B-	.	.	8e-/ 8g- 8ee-	.	sfz
.	.	.	8e-/ 8g- 8ee-	.	.
.	.	.	8e-/ 8g- 8ee-	.	.
.	.	.	8e-/J 8g- 8ee-	.	.
*Xped	*	*	*	*	*
*v	*v	*	*	*	*
=50	=50	=50	=50	=50
*	*	*^	*	*
!	!	!	!LO:TX:b:i:t=con dolore	!	!
2.AAn\ 2.An	.	((4e-/ 4ee-	8gn\L 8cc	.	.
.	.	.	8g\J 8cc	.	.
.	.	4d/)) 4dd	8g\L 8cc	.	.
.	.	.	8g\J 8cc	.	.
.	.	8.d/L 8.dd	8g\L 8cc	.	.
.	.	.	8g\J 8cc	.	.
.	.	16e-/Jk 16ee-	.	.	.
=51	=51	=51	=51	=51	=51
2.AA-X\ 2.A-X	.	((4e-/ 4ee-	8g-X\L 8cc	.	.
.	.	.	8g-\J 8cc	.	.
.	.	4d/)) 4dd	8g-\L 8cc	.	.
.	.	.	8g-\J 8cc	.	.
.	.	8.d/L 8.dd	8g-\L 8cc	.	.
.	.	.	8g-\J 8cc	.	.
.	.	16e-/Jk 16ee-	.	.	.
=52	=52	=52	=52	=52	=52
*^	*	*	*	*	*
*ped	*	*	*	*	*	*
(<2AA-/	2.CC\	.	8e-/ 8cc 8ee-	2ryy	.	.
.	.	.	8E-</L 8c< 8e-<	.	.	.
.	.	.	8E-</ 8c< 8e-<	.	.	.
.	.	.	8E-</J 8c< 8e-<	.	.	.
4GG/)	.	.	8.ee-/L	8e-\L 8cc	.	.
.	.	.	.	8e-\J 8cc	.	.
.	.	.	16ee-/Jk	.	.	.
*Xped	*	*	*	*	*	*
*v	*v	*	*	*	*	*
!!LO:LB:g=original	!	!	!	!	!
=53	=53	=53	=53	=53	=53
*ped	*	*	*	*	*
8AA-\L 8D-X 8F 8c-X	.	2ee-~/	8e-\L 8a-	.	.
8AA-\ 8D- 8F 8c-	.	.	8e-\ 8a-	.	.
8AA-\ 8D- 8F 8c-	.	.	8e-\ 8a-	.	.
8AA-\J 8D- 8F 8c-	.	.	8e-\J 8a-	.	.
*Xped	*	*	*	*	*
8.AA-\L	.	8F</L 8c< 8e-<	4ryy	.	.
.	.	8F</J 8c< 8e-<	.	.	.
16AA-\Jk	.	.	.	.	.
*	*	*v	*v	*	*
=54	=54	=54	=54	=54
*^	*	*	*	*
*	*^	*	*	*	*
8E-/L 8cn	(<4AA-\	[<2.CC\	2 5	2e-/	.	.
8E-/ 8c	.	.	.	.	.	.
8E-/ 8c	2GG\)	.	1	.	.	.
8E-/ 8c	.	.	.	.	.	.
8E-/ 8c	.	.	.	8.e-/L	.	.
8E-/J 8c	.	.	.	.	.	.
.	.	.	.	16e-/Jk	.	.
*	*	*	*	*clefF4	*	*
*	*v	*v	*	*	*	*
=55	=55	=55	=55	=55	=55
*	*	*	*^	*	*
2.FF/	2.CCnX\_	.	((4E-/ 4e-	8A-\L 8c-X	.	.
.	.	.	.	8A-\J 8c-	.	.
.	.	.	4D/)) 4d	8A-\L 8c-	.	.
.	.	.	.	8A-\J 8c-	.	.
.	.	.	8.D/L 8.d	8A-\L 8c-	.	.
.	.	.	.	8A-\J 8c-	.	.
.	.	.	16D/Jk 16d	.	.	.
=56	=56	=56	=56	=56	=56	=56
2EEn/	2CC\]	.	((4D/ 4d	8G\L 8B-	.	.
.	.	.	.	8G\J 8B-	.	.
.	.	.	4D-X/)) 4d-X	8G\L 8B-	.	.
.	.	.	.	8G\J 8B-	.	.
8.EEE-X/L 8.EE-X	4ryy	1 5	8C\L 8G 8c	4ryy	.	.
.	.	.	8C\J 8G 8c	.	.	.
((16EEE-/Jk 16EE-	.	.	.	.	.	.
*v	*v	*	*	*	*	*
*	*	*v	*v	*	*
!!LO:LB:g=original	!	!	!	!
=57	=57	=57	=57	=57
*ped	*	*	*	*
2GGG-X/)) 2GG-X	1 4	8r	.	.
.	.	8C\L 8E- 8B-	.	.
.	.	8C\ 8E- 8B-	.	.
.	.	8C\J 8E- 8B-	.	.
*Xped	*	*	*	*
8.EEE-/L 8.EE-	.	8C\L 8Gn 8c	.	.
.	.	8C\J 8G 8c	.	.
((16EEE-/Jk 16EE-	.	.	.	.
=58	=58	=58	=58	=58
*ped	*	*	*	*
((2GGG-X/)) 2GG-X	.	8r	.	.
.	.	8C\L 8E- 8B-	.	.
.	.	8C\ 8E- 8B-	.	.
.	.	8C\ 8E- 8B-	.	.
*Xped	*	*	*	*
[4FFF/)) [4FF	.	8C\ 8E- 8An	.	.
.	.	8C\J 8E- 8A	.	.
=59	=59	=59	=59	=59
*	*	*^	*	*
!	!	!LO:TX:b:Bi:t=dim. poco a poco_:problem:dynamics with line extensions	!	!	!LO:HP:t=dim. poco a poco_
8FFF/L] 8FF]	.	2AA-X\ 2C 2A-X	2ryy	.	>
8EEEn/ 8EEn	5	.	.	.	.
8EEE-X/ 8EE-X	4	.	.	.	.
8DDD/J 8DD	5	.	.	.	.
4DDD-X/ 4DD-X	4	8BBn\L 8F	8.GG/L 8.G	.	.
.	.	8BB\J 8F	.	.	.
.	.	.	16GG/Jk 16G	.	.
=60	=60	=60	=60	=60	=60
*^	*	*	*	*	*
(2DD-X/	2.CCC\	.	2GG/ 2G	8BBn\L 8F	.	.
.	.	.	.	8BB\ 8F	.	.
.	.	.	.	8BB\ 8F	.	.
.	.	.	.	8BB\ 8F	.	.
4CC/)	.	.	8.GG/L 8.G	8C\ 8En	.	.
.	.	.	.	8C\J 8E	.	.
.	.	.	16GG/Jk	.	.	.
*v	*v	*	*	*	*	*
*	*	*v	*v	*	*
=61	=61	=61	=61	=61
2.CCC/ 2.CC	.	2.GG/ 2.C 2.En 2.G	.	ppp
==	==	==	==	==
*-	*-	*-	*-	*-
!!!system-decoration: {(s1,s2)}
!!!RDF**kern: > = above
!!!RDF**kern: < = below
!!!ENC: Filip Voros
!!!END: 2023-10-13
!!!EED: Jan Barakat
!!!EEV: 2023-10-24
